images/f8fc2072ba30710a94372edca8176a71.svg

<?xml version="1.0" encoding="UTF-8" standalone="no"?><svg xmlns="http://www.w3.org/2000/svg" xmlns:xlink="http://www.w3.org/1999/xlink" fill="#000000" height="979.8" preserveAspectRatio="xMidYMid meet" version="1" viewBox="194.7 570.8 1732.0 979.8" width="1732" zoomAndPan="magnify"><g id="change1_1"><path d="M 1840.765625 1464.648438 C 1809.214844 1496.171875 1765.835938 1515.601562 1717.742188 1515.609375 C 1669.632812 1515.601562 1626.253906 1496.171875 1594.707031 1464.648438 C 1563.195312 1433.121094 1543.773438 1389.730469 1543.761719 1341.628906 C 1543.761719 1335.519531 1544.082031 1329.5 1544.683594 1323.558594 L 1605.59375 1347.242188 C 1607.011719 1375.980469 1619.28125 1401.988281 1638.335938 1421.03125 C 1658.605469 1441.328125 1686.785156 1453.929688 1717.753906 1453.917969 C 1748.6875 1453.929688 1776.863281 1441.320312 1797.136719 1421.03125 C 1817.429688 1400.769531 1830.054688 1372.589844 1830.03125 1341.628906 C 1830.054688 1310.671875 1817.429688 1282.492188 1797.136719 1262.230469 C 1776.863281 1241.941406 1748.6875 1229.328125 1717.753906 1229.339844 C 1691.195312 1229.328125 1666.691406 1238.628906 1647.460938 1254.078125 L 1584.625 1229.648438 C 1587.828125 1225.828125 1591.183594 1222.140625 1594.707031 1218.601562 C 1626.253906 1187.089844 1669.632812 1167.660156 1717.742188 1167.648438 C 1765.835938 1167.660156 1809.214844 1187.089844 1840.765625 1218.601562 C 1872.277344 1250.140625 1891.71875 1293.53125 1891.71875 1341.628906 C 1891.71875 1389.730469 1872.277344 1433.121094 1840.765625 1464.648438 Z M 1713.984375 1385.667969 C 1724.21875 1385.660156 1734.101562 1382.589844 1742.445312 1376.988281 C 1750.789062 1371.402344 1757.632812 1363.191406 1761.535156 1353.160156 L 1761.535156 1353.128906 C 1763.875 1347.109375 1764.996094 1340.839844 1764.996094 1334.679688 C 1764.984375 1324.441406 1761.925781 1314.550781 1756.320312 1306.210938 C 1750.71875 1297.871094 1742.503906 1291.03125 1732.46875 1287.128906 L 1688.476562 1270.03125 C 1697.492188 1266.332031 1707.351562 1264.257812 1717.753906 1264.257812 C 1739.160156 1264.269531 1758.390625 1272.890625 1772.445312 1286.917969 C 1786.476562 1300.980469 1795.101562 1320.210938 1795.113281 1341.628906 C 1795.101562 1363.050781 1786.476562 1382.28125 1772.445312 1396.328125 C 1758.390625 1410.359375 1739.160156 1418.988281 1717.753906 1419 C 1696.324219 1418.988281 1677.09375 1410.359375 1663.039062 1396.328125 C 1653.59375 1386.878906 1646.703125 1375.058594 1643.121094 1361.828125 L 1695.507812 1382.199219 C 1699.894531 1383.898438 1704.410156 1384.96875 1708.921875 1385.421875 L 1710.671875 1368.039062 L 1708.9375 1385.421875 C 1710.613281 1385.589844 1712.292969 1385.667969 1713.984375 1385.667969 Z M 577.890625 910.179688 C 571.65625 907.777344 567.625 901.75 567.632812 895.214844 C 567.625 894.636719 567.65625 894.136719 567.703125 893.726562 C 567.832031 892.472656 567.832031 891.136719 567.691406 889.882812 L 542.484375 668.105469 C 541.480469 659.308594 534.046875 652.644531 525.195312 652.621094 L 455.554688 652.382812 L 455.554688 619.9375 L 560.039062 619.867188 C 564.039062 620.386719 567.398438 622.230469 569.921875 625.019531 C 572.535156 627.929688 574.058594 631.664062 574.058594 635.730469 C 574.058594 636.261719 574.023438 636.828125 573.96875 637.417969 C 573.851562 638.671875 573.859375 639.960938 574.015625 641.214844 L 602.285156 875.273438 C 603.058594 881.691406 607.269531 887.117188 613.292969 889.457031 L 1719.820312 1319.679688 C 1723.046875 1320.949219 1725.542969 1323.03125 1727.328125 1325.679688 C 1729.101562 1328.320312 1730.09375 1331.488281 1730.082031 1334.679688 C 1730.082031 1336.601562 1729.738281 1338.539062 1728.96875 1340.519531 L 1728.980469 1340.488281 C 1727.71875 1343.71875 1725.625 1346.210938 1722.988281 1348 C 1720.34375 1349.78125 1717.175781 1350.75 1713.984375 1350.75 C 1713.460938 1350.75 1712.941406 1350.71875 1712.410156 1350.671875 C 1711.003906 1350.53125 1709.597656 1350.199219 1708.167969 1349.652344 Z M 1118.101562 1222.929688 C 1127.890625 1207.5 1137.691406 1192.058594 1147.449219 1176.578125 C 1148.46875 1174.960938 1149.46875 1173.320312 1150.5 1171.699219 C 1151.699219 1171.699219 1152.910156 1171.699219 1154.128906 1171.699219 L 1285.886719 1222.929688 Z M 841.503906 1050.152344 L 1064.300781 1136.78125 C 973.867188 1136.78125 903.941406 1136.78125 877.378906 1136.78125 Z M 1076.742188 1222.929688 L 902.128906 1222.929688 C 892.480469 1222.929688 884.664062 1230.75 884.664062 1240.402344 C 884.664062 1250.039062 892.480469 1257.859375 902.128906 1257.859375 L 1054.621094 1257.859375 C 1035.800781 1287.609375 1017.058594 1317.460938 998.65625 1347.570312 C 990.804688 1360.449219 984.324219 1374.449219 977.992188 1388.5 C 968.546875 1409.570312 959.378906 1430.757812 948.148438 1447.871094 C 942.550781 1456.421875 936.484375 1463.941406 929.78125 1470.078125 C 923.0625 1476.242188 915.75 1481.058594 907.21875 1484.480469 C 901.519531 1486.75 896.382812 1487.671875 891.519531 1487.671875 C 885.128906 1487.660156 879.082031 1486.082031 873.085938 1483.007812 C 864.128906 1478.441406 855.464844 1470.269531 848.644531 1460.050781 C 841.804688 1449.878906 836.875 1437.769531 834.746094 1426.332031 C 809.0625 1289.660156 782.375 1152.878906 754.917969 1016.480469 L 796.445312 1032.628906 L 849.570312 1160.921875 C 852.273438 1167.449219 858.644531 1171.699219 865.710938 1171.699219 C 865.722656 1171.699219 871.507812 1171.699219 882.195312 1171.699219 C 916.820312 1171.699219 1002.769531 1171.699219 1109.199219 1171.699219 C 1098.398438 1188.78125 1087.578125 1205.847656 1076.742188 1222.929688 Z M 733.429688 789.175781 L 1793.105469 789.175781 C 1774.703125 825.167969 1737.707031 894.730469 1693.582031 962.402344 C 1663.820312 1008.101562 1630.734375 1052.941406 1598.667969 1085.558594 C 1582.664062 1101.871094 1566.894531 1115.089844 1552.460938 1123.859375 C 1545.242188 1128.25 1538.386719 1131.519531 1532.050781 1133.660156 C 1525.726562 1135.789062 1519.945312 1136.78125 1514.746094 1136.78125 C 1460.796875 1136.78125 1403.339844 1136.78125 1345.765625 1136.78125 L 787.492188 919.71875 Z M 691.242188 754.25 C 683.609375 754.238281 676.851562 751.199219 671.828125 746.210938 C 666.832031 741.1875 663.800781 734.425781 663.789062 726.789062 C 663.800781 719.15625 666.832031 712.40625 671.828125 707.382812 C 676.851562 702.382812 683.609375 699.34375 691.242188 699.332031 L 1837.40625 699.332031 C 1845.054688 699.34375 1851.804688 702.382812 1856.816406 707.382812 C 1861.816406 712.40625 1864.851562 719.15625 1864.863281 726.789062 C 1864.851562 734.425781 1861.816406 741.1875 1856.816406 746.210938 C 1851.804688 751.199219 1845.054688 754.238281 1837.40625 754.25 Z M 1760.894531 980.5625 C 1760.882812 1000.878906 1757.789062 1016.558594 1754.808594 1026.96875 C 1753.320312 1032.179688 1751.855469 1036.058594 1750.824219 1038.53125 C 1750.636719 1038.960938 1750.496094 1039.300781 1750.339844 1039.648438 L 1643.710938 1146.269531 C 1615.804688 1156.851562 1590.710938 1173.210938 1570.015625 1193.910156 C 1562.992188 1200.917969 1556.492188 1208.4375 1550.523438 1216.390625 L 1435.585938 1171.699219 C 1462.535156 1171.699219 1489.023438 1171.699219 1514.746094 1171.699219 C 1524.683594 1171.699219 1534.519531 1169.769531 1544.105469 1166.4375 C 1562.082031 1160.171875 1579.363281 1149.160156 1596.445312 1135.101562 C 1626.289062 1110.441406 1655.675781 1076.109375 1683.59375 1038.289062 C 1709.230469 1003.488281 1733.53125 965.75 1754.925781 930.09375 C 1759.300781 949.171875 1760.882812 966.0625 1760.894531 980.5625 Z M 420.632812 664.417969 L 229.589844 664.417969 L 229.589844 605.707031 L 420.632812 605.707031 Z M 1865.457031 1193.910156 C 1827.703125 1156.128906 1775.363281 1132.710938 1717.742188 1132.71875 C 1713.910156 1132.71875 1710.105469 1132.839844 1706.335938 1133.039062 L 1777.171875 1062.199219 C 1778.332031 1061.050781 1779.417969 1059.582031 1780.199219 1058.140625 C 1781.203125 1056.289062 1795.8125 1028.378906 1795.824219 980.5625 C 1795.847656 955.066406 1791.59375 924.007812 1779.132812 888.605469 C 1783.460938 881.007812 1787.609375 873.582031 1791.535156 866.480469 C 1810.847656 831.515625 1825.183594 803.3125 1832.21875 789.175781 L 1837.40625 789.175781 C 1854.582031 789.175781 1870.289062 782.167969 1881.519531 770.902344 C 1892.773438 759.675781 1899.792969 743.964844 1899.792969 726.789062 C 1899.792969 709.628906 1892.773438 693.917969 1881.519531 682.691406 C 1870.289062 671.425781 1854.582031 664.40625 1837.40625 664.417969 L 691.242188 664.417969 C 674.066406 664.40625 658.367188 671.425781 647.136719 682.691406 C 635.871094 693.917969 628.855469 709.628906 628.867188 726.789062 C 628.855469 743.964844 635.871094 759.675781 647.136719 770.902344 C 658.367188 782.167969 674.066406 789.175781 691.242188 789.175781 L 695.632812 789.175781 L 742.4375 902.199219 L 635.707031 860.699219 L 608.851562 638.378906 C 608.894531 637.492188 608.980469 636.617188 608.980469 635.730469 C 608.980469 622.773438 604.058594 610.730469 595.890625 601.664062 C 587.746094 592.585938 576.160156 586.34375 563.078125 585.035156 C 562.351562 584.960938 562.050781 584.949219 561.316406 584.949219 L 455.234375 585.023438 C 454.582031 581.59375 452.925781 578.378906 450.4375 575.898438 C 447.1875 572.644531 442.691406 570.777344 438.09375 570.777344 L 212.132812 570.777344 C 207.53125 570.777344 203.035156 572.644531 199.78125 575.898438 C 196.53125 579.148438 194.664062 583.640625 194.664062 588.238281 L 194.664062 681.875 C 194.664062 686.472656 196.53125 690.976562 199.78125 694.226562 C 203.035156 697.476562 207.53125 699.332031 212.132812 699.332031 L 438.09375 699.332031 C 442.691406 699.332031 447.1875 697.476562 450.4375 694.226562 C 452.378906 692.289062 453.75 689.890625 454.601562 687.3125 L 509.53125 687.488281 L 532.84375 892.554688 C 532.804688 893.441406 532.710938 894.386719 532.710938 895.214844 C 532.710938 916.101562 545.484375 935.046875 565.230469 942.734375 L 716.285156 1001.460938 C 745.28125 1144.96875 773.390625 1288.9375 800.421875 1432.78125 C 804.582031 1454.589844 814.855469 1476.019531 830.140625 1492.980469 C 837.804688 1501.429688 846.800781 1508.757812 857.121094 1514.070312 C 867.414062 1519.371094 879.125 1522.597656 891.519531 1522.589844 C 900.925781 1522.597656 910.640625 1520.730469 920.191406 1516.910156 C 937.269531 1510.089844 951.113281 1499.289062 962.273438 1486.808594 C 979.046875 1468.039062 990.316406 1445.640625 1000.289062 1424.039062 C 1010.179688 1402.441406 1018.820312 1381.480469 1028.460938 1365.78125 C 1050.550781 1329.640625 1073.191406 1293.75 1095.949219 1257.859375 L 1375.707031 1257.859375 L 1511.152344 1310.519531 C 1509.625 1320.671875 1508.835938 1331.058594 1508.835938 1341.628906 C 1508.824219 1399.261719 1532.238281 1451.601562 1570.015625 1489.351562 C 1607.769531 1527.128906 1660.09375 1550.539062 1717.742188 1550.53125 C 1775.363281 1550.539062 1827.703125 1527.128906 1865.457031 1489.351562 C 1903.246094 1451.601562 1926.660156 1399.269531 1926.648438 1341.628906 C 1926.660156 1283.992188 1903.246094 1231.660156 1865.457031 1193.910156" fill="#646044"/></g></svg>

<svg xmlns="http://www.w3.org/2000/svg" version="1" viewBox="194.7 570.8 1732 979.8">
    <path fill="#646044"
        d="M1840.766 1464.648c-31.551 31.524-74.93 50.954-123.024 50.961-48.11-.007-91.488-19.437-123.035-50.96-31.512-31.528-50.934-74.919-50.945-123.02 0-6.11.32-12.129.922-18.07l60.91 23.683c1.418 28.738 13.687 54.746 32.742 73.79 20.27 20.296 48.45 32.898 79.418 32.886 30.934.012 59.11-12.598 79.383-32.887 20.293-20.261 32.918-48.441 32.894-79.402.024-30.957-12.601-59.137-32.894-79.399-20.274-20.289-48.45-32.902-79.383-32.89-26.559-.012-51.063 9.289-70.293 24.738l-62.836-24.43a175.028 175.028 0 0 1 10.082-11.046c31.547-31.512 74.926-50.942 123.035-50.954 48.094.012 91.473 19.442 123.024 50.954 31.511 31.539 50.953 74.93 50.953 123.027 0 48.101-19.442 91.492-50.953 123.02Zm-126.782-78.98a51.11 51.11 0 0 0 28.461-8.68 50.91 50.91 0 0 0 19.09-23.828v-.031a50.931 50.931 0 0 0 3.461-18.45 51.112 51.112 0 0 0-8.676-28.468 51.038 51.038 0 0 0-23.851-19.082l-43.992-17.098a76.868 76.868 0 0 1 29.277-5.773c21.406.012 40.637 8.633 54.691 22.66 14.032 14.062 22.657 33.293 22.668 54.71-.011 21.423-8.636 40.653-22.668 54.7-14.054 14.031-33.285 22.66-54.691 22.672-21.43-.012-40.66-8.64-54.715-22.672-9.445-9.45-16.336-21.27-19.918-34.5l52.387 20.371a51.357 51.357 0 0 0 13.414 3.223l1.75-17.383-1.735 17.383a50.53 50.53 0 0 0 5.047.246ZM577.891 910.18c-6.235-2.403-10.266-8.43-10.258-14.965a11.76 11.76 0 0 1 .07-1.488c.129-1.254.129-2.59-.012-3.844l-25.207-221.778c-1.004-8.796-8.437-15.46-17.289-15.484l-69.64-.238v-32.446l104.484-.07c4 .52 7.36 2.363 9.883 5.153 2.613 2.91 4.137 6.644 4.137 10.71 0 .532-.036 1.098-.09 1.688a17.63 17.63 0 0 0 .047 3.797l28.27 234.058a17.41 17.41 0 0 0 11.007 14.184L1719.82 1319.68c3.227 1.27 5.723 3.351 7.508 6 1.774 2.64 2.766 5.808 2.754 9 0 1.922-.344 3.86-1.113 5.84l.011-.032a15.957 15.957 0 0 1-5.992 7.512 16.205 16.205 0 0 1-9.004 2.75c-.523 0-1.043-.031-1.574-.078a16.356 16.356 0 0 1-4.242-1.02Zm540.21 312.75c9.79-15.43 19.59-30.871 29.348-46.352 1.02-1.617 2.02-3.258 3.051-4.879h3.629l131.758 51.23Zm-276.597-172.778 222.797 86.63H877.379Zm235.238 172.778H902.13c-9.649 0-17.465 7.82-17.465 17.472 0 9.637 7.816 17.457 17.465 17.457h152.492c-18.82 29.75-37.562 59.602-55.965 89.711-7.851 12.88-14.332 26.88-20.664 40.93-9.445 21.07-18.613 42.258-29.844 59.371-5.597 8.55-11.664 16.07-18.367 22.207-6.718 6.164-14.031 10.98-22.562 14.402-5.7 2.27-10.836 3.192-15.7 3.192-6.39-.012-12.437-1.59-18.433-4.664-8.957-4.567-17.621-12.738-24.441-22.957-6.84-10.172-11.77-22.281-13.899-33.719-25.683-136.672-52.371-273.453-79.828-409.852l41.527 16.149 53.125 128.293a17.464 17.464 0 0 0 16.14 10.777H1109.2a41283.824 41283.824 0 0 1-32.457 51.23ZM733.43 789.176h1059.675c-18.402 35.992-55.398 105.554-99.523 173.226-29.762 45.7-62.848 90.54-94.914 123.157-16.004 16.312-31.773 29.53-46.207 38.3-7.219 4.391-14.074 7.66-20.41 9.801-6.324 2.13-12.106 3.121-17.305 3.121h-168.98L787.492 919.72Zm-42.188-34.926c-7.633-.012-14.39-3.05-19.414-8.04-4.996-5.023-8.027-11.784-8.039-19.42.012-7.634 3.043-14.384 8.04-19.407 5.023-5 11.78-8.04 19.413-8.051h1146.164c7.649.012 14.399 3.05 19.41 8.05 5 5.024 8.036 11.774 8.047 19.407-.011 7.637-3.047 14.399-8.047 19.422-5.011 4.988-11.761 8.027-19.41 8.039Zm1069.653 226.313c-.012 20.316-3.106 35.996-6.086 46.406-1.489 5.21-2.954 9.09-3.985 11.562-.187.43-.328.77-.484 1.117l-106.63 106.622a209.142 209.142 0 0 0-73.694 47.64 208.654 208.654 0 0 0-19.493 22.48l-114.937-44.69h79.16c9.938 0 19.774-1.93 29.36-5.263 17.976-6.265 35.257-17.277 52.34-31.335 29.843-24.66 59.23-58.993 87.148-96.813 25.636-34.8 49.937-72.539 71.332-108.195 4.375 19.078 5.957 35.968 5.969 50.468ZM420.633 664.418H229.59v-58.711h191.043Zm1444.824 529.492c-37.754-37.781-90.094-61.2-147.715-61.191-3.832 0-7.637.12-11.406.32l70.836-70.84a17.935 17.935 0 0 0 3.027-4.058c1.004-1.852 15.613-29.762 15.625-77.579.024-25.496-4.23-56.554-16.691-91.957a1977.835 1977.835 0 0 0 12.402-22.125c19.313-34.964 33.649-63.168 40.684-77.304h5.187a62.278 62.278 0 0 0 44.114-18.274 62.32 62.32 0 0 0 18.273-44.113 62.31 62.31 0 0 0-18.273-44.098 62.229 62.229 0 0 0-44.114-18.273H691.242a62.21 62.21 0 0 0-44.105 18.273 62.21 62.21 0 0 0-18.27 44.098 62.219 62.219 0 0 0 18.27 44.113 62.26 62.26 0 0 0 44.105 18.274h4.39l46.806 113.023-106.731-41.5-26.855-222.32c.043-.887.128-1.762.128-2.649a50.9 50.9 0 0 0-13.09-34.066 50.932 50.932 0 0 0-32.812-16.629 13.932 13.932 0 0 0-1.762-.086l-106.082.074c-.652-3.43-2.308-6.644-4.796-9.125a17.563 17.563 0 0 0-12.344-5.12H212.133a17.582 17.582 0 0 0-12.352 5.12 17.567 17.567 0 0 0-5.117 12.34v93.637c0 4.598 1.867 9.102 5.117 12.352a17.583 17.583 0 0 0 12.352 5.105h225.96c4.598 0 9.094-1.855 12.344-5.105 1.942-1.938 3.313-4.336 4.165-6.914l54.93.175 23.312 205.067c-.04.886-.133 1.832-.133 2.66a50.988 50.988 0 0 0 32.52 47.52l151.054 58.726c28.996 143.508 57.106 287.476 84.137 431.32 4.16 21.809 14.433 43.239 29.719 60.2 7.664 8.449 16.66 15.777 26.98 21.09 10.293 5.3 22.004 8.527 34.399 8.519 9.406.008 19.12-1.86 28.671-5.68 17.079-6.82 30.922-17.62 42.082-30.101 16.774-18.77 28.043-41.168 38.016-62.77 9.89-21.598 18.531-42.559 28.172-58.258 22.09-36.14 44.73-72.031 67.488-107.922h279.758l135.445 52.66a209.001 209.001 0 0 0-2.316 31.11c-.012 57.633 23.402 109.973 61.18 147.723 37.754 37.777 90.078 61.187 147.726 61.18 57.621.007 109.961-23.403 147.715-61.18 37.79-37.75 61.203-90.082 61.191-147.723.012-57.637-23.402-109.969-61.191-147.719" />
</svg>
